X: 122
%
U:~=!turn!
T: The Countess of Sutherland
C:
O:Scotland
B:Keith Norman MacDonald : "The Skye collection of the best reels & strathspeys extant" : 1887
Z:Ralph Palmer
R:Reel
M:C
L:1/8
K:Bb
d | B2 (FB) GBFB | EBDB Cccd | B2 (FB) Ggfe | dfce dBB :| a | bfdf egce | dfBd cFFa |
bfdf egcg | dfce dBBa | bfdf egce | dfBd cFFf | {/a}gfga bgfe | dfce dBB |]


